images/icons/flags/fr.svg

<svg id="Capa_1" enable-background="new 0 0 512 512" height="512" viewBox="0 0 512 512" width="512" xmlns="http://www.w3.org/2000/svg"><g><path d="m170.667 90.839h-154.151l-6.032 16.516v289.796c0 9.121 7.395 16.516 16.516 16.516h143.667l19.269-17.283v-280.768z" fill="#5055a0"/><path d="m341.333 413.5h154.151l16.516-8.855v-297.29c0-9.121-7.395-16.516-16.516-16.516h-154.151l-19.269 24.778v280.768z" fill="#e5646e"/><path d="m512 404.645h-183.511l12.844 16.516h154.151c9.121 0 16.516-7.394 16.516-16.516z" fill="#db4655"/><path d="m16.516 355.097v-264.258c-9.121 0-16.516 7.394-16.516 16.516v297.29c0 9.122 7.395 16.516 16.516 16.516h154.151l12.844-16.516h-117.446c-27.365 0-49.549-22.183-49.549-49.548z" fill="#3f3f8f"/><path d="m187.333 413.667h141l13-9.022v-313.806h-170.666v313.806z" fill="#f2f2f6"/><path d="m170.667 404.645h170.666v16.516h-170.666z" fill="#e1e1e6"/></g></svg>

<svg xmlns="http://www.w3.org/2000/svg" width="512" height="512"><defs/><path fill="#5055a0" d="M170.667 90.839H16.516l-6.032 16.516v289.796c0 9.121 7.395 16.516 16.516 16.516h143.667l19.269-17.283V115.616z"/><path fill="#e5646e" d="M341.333 413.5h154.151L512 404.645v-297.29c0-9.121-7.395-16.516-16.516-16.516H341.333l-19.269 24.778v280.768z"/><path fill="#db4655" d="M512 404.645H328.489l12.844 16.516h154.151c9.121 0 16.516-7.394 16.516-16.516z"/><path fill="#3f3f8f" d="M16.516 355.097V90.839C7.395 90.839 0 98.233 0 107.355v297.29c0 9.122 7.395 16.516 16.516 16.516h154.151l12.844-16.516H66.065c-27.365 0-49.549-22.183-49.549-49.548z"/><path fill="#f2f2f6" d="M187.333 413.667h141l13-9.022V90.839H170.667v313.806z"/><path fill="#e1e1e6" d="M170.667 404.645h170.666v16.516H170.667z"/></svg>
